X:1
T:Title
%%score { ( 1 3 ) | 2 }
L:1/8
Q:1/4=110
M:4/4
K:Ab
V:1 treble nm="Grand Piano"
V:3 treble 
V:2 bass 
V:1
 [CE]>[CE] [CE]>[CE] [DF]>[CE] [EA]>B | c2 d2 c4 | c4 B4 | [CA]6 z2 | %4
w: Robert~Harkness * * * * * * *||||
 [CE]>[CE] [CE]>[CE] [DF]>[CE] [EA]>B | c2 d2 c4 | c4 B4 | [CA]6 z2 | [Ae]4 [EAc]4 | B2 z2 z4 | %10
w: ||||||
 [Gd]4 [GB]4 | c6 z2 | c>c B>B A>B c>d | e2 f2 e4 | [Ac]4 [Ge]4 | [CEA]6 z2 |] %16
w: ||||||
V:2
 [A,,A,]>[A,,A,] [A,,A,]>[A,,A,] [A,,A,]>[A,,A,] [C,A,]>[E,G,E] | [A,E]2 [A,F]2[K:bass] [A,E]4 | %2
 [E,A,E]4 [E,G,D]4 | [A,,A,]6 z2 | [A,,A,]>[A,,A,] [A,,A,]>[A,,A,] [A,,A,]>[A,,A,] [C,A,]>[E,G,E] | %5
 [A,E]2 [A,F]2[K:bass] [A,E]4 | [E,A,E]4 [E,G,D]4 | [A,,A,]6 z2 | [A,C]4 A,4 | G,2 F,2 E,2 z2 | %10
 [E,B,]4 [E,E]4 | [A,EA]6 z2 | [A,EA]>[A,EA] [A,DA]>[A,DA] [A,C]>[A,DA] [A,EA]>[A,B,A] | %13
 [A,CA]2 [A,DA]2 [A,CA]4 | [E,E]4 [E,B,]4 | A,,6 z2 |] %16
V:3
 x8 | x8 | x8 | x8 | x8 | x8 | x8 | x8 | x8 | [Ed]2- [E-Ad-]2 [EGd]2 z2 | x8 | x8 | x8 | x8 | x8 | %15
 x8 |] %16

